www/assets/icons/receipt_long.svg

<svg xmlns="http://www.w3.org/2000/svg" width="24" height="24" viewBox="0 0 24 24" fill='currentColor'><path d="M19.5 3.5 18 2l-1.5 1.5L15 2l-1.5 1.5L12 2l-1.5 1.5L9 2 7.5 3.5 6 2v14H3v3c0 1.66 1.34 3 3 3h12c1.66 0 3-1.34 3-3V2zM19 19c0 .55-.45 1-1 1s-1-.45-1-1v-3H8V5h11z"/><path d="M15 7H9v2h6zm3 0h-2v2h2zm-3 3H9v2h6zm3 0h-2v2h2z"/></svg>

<svg width="24" height="24" viewBox="0 0 24 24" xmlns="http://www.w3.org/2000/svg" fill='currentColor'><path d="M19.5 3.5L18 2L16.5 3.5L15 2L13.5 3.5L12 2L10.5 3.5L9 2L7.5 3.5L6 2V16H3V19C3 20.66 4.34 22 6 22H18C19.66 22 21 20.66 21 19V2L19.5 3.5ZM19 19C19 19.55 18.55 20 18 20C17.45 20 17 19.55 17 19V16H8V5H19V19Z"/><path d="M15 7H9V9H15V7Z"/><path d="M18 7H16V9H18V7Z"/><path d="M15 10H9V12H15V10Z"/><path d="M18 10H16V12H18V10Z"/></svg>
